src/icons/svg/hamburger.svg

<?xml version="1.0" encoding="UTF-8"?>
<svg width="128px" height="113px" viewBox="0 0 128 113" version="1.1" xmlns="http://www.w3.org/2000/svg" xmlns:xlink="http://www.w3.org/1999/xlink">
    <!-- Generator: Sketch 64 (93537) - https://sketch.com -->
    <title>hamburger</title>
    <desc>Created with Sketch.</desc>
    <g id="页面-1" stroke="none" stroke-width="1"  fill-rule="evenodd">
        <g id="hamburger" transform="translate(0.000000, 0.000000)" fill-rule="nonzero">
            <path d="M47.133758,44.9044586 L123.566879,44.9044586 C124.267516,44.9044586 124.840764,44.3312102 124.840764,43.6305732 L124.840764,34.7133758 C124.840764,34.0127389 124.267516,33.4394904 123.566879,33.4394904 L47.133758,33.4394904 C46.433121,33.4394904 45.8598726,34.0127389 45.8598726,34.7133758 L45.8598726,43.6305732 C45.8598726,44.3312102 46.433121,44.9044586 47.133758,44.9044586 Z M45.8598726,77.388535 C45.8598726,78.089172 46.433121,78.6624204 47.133758,78.6624204 L123.566879,78.6624204 C124.267516,78.6624204 124.840764,78.089172 124.840764,77.388535 L124.840764,68.4713376 C124.840764,67.7707006 124.267516,67.1974522 123.566879,67.1974522 L47.133758,67.1974522 C46.433121,67.1974522 45.8598726,67.7707006 45.8598726,68.4713376 L45.8598726,77.388535 Z M126.11465,0 L1.27388535,0 C0.573248408,0 0,0.573248408 0,1.27388535 L0,10.1910828 C0,10.8917197 0.573248408,11.4649682 1.27388535,11.4649682 L126.11465,11.4649682 C126.815287,11.4649682 127.388535,10.8917197 127.388535,10.1910828 L127.388535,1.27388535 C127.388535,0.573248408 126.815287,0 126.11465,0 Z M126.11465,100.636943 L1.27388535,100.636943 C0.573248408,100.636943 0,101.210191 0,101.910828 L0,110.828025 C0,111.528662 0.573248408,112.101911 1.27388535,112.101911 L126.11465,112.101911 C126.815287,112.101911 127.388535,111.528662 127.388535,110.828025 L127.388535,101.910828 C127.388535,101.210191 126.815287,100.636943 126.11465,100.636943 Z M4.84076433,76.7675159 L29.7292994,57.1656051 C30.4458599,56.6082803 30.4458599,55.5254777 29.7292994,54.9522293 L4.84076433,35.3343949 C3.91719745,34.6019108 2.5477707,35.2547771 2.5477707,36.433121 L2.5477707,75.6528662 C2.5477707,76.8312102 3.90127389,77.5 4.84076433,76.7675159 L4.84076433,76.7675159 Z" id="形状"></path>
        </g>
    </g>
</svg>

<svg viewBox="0 0 128 113"><path fill-rule="nonzero" d="M47.134 44.904h76.433c.7 0 1.274-.573 1.274-1.273v-8.918c0-.7-.573-1.274-1.274-1.274H47.134c-.7 0-1.274.574-1.274 1.274v8.918c0 .7.573 1.273 1.274 1.273zM45.86 77.39c0 .7.573 1.273 1.274 1.273h76.433c.7 0 1.274-.573 1.274-1.273V68.47c0-.7-.573-1.274-1.274-1.274H47.134c-.7 0-1.274.574-1.274 1.274v8.918zM126.115 0H1.274C.574 0 0 .573 0 1.274v8.917c0 .7.573 1.274 1.274 1.274h124.84c.701 0 1.275-.573 1.275-1.274V1.274c0-.7-.574-1.274-1.274-1.274zm0 100.637H1.274c-.7 0-1.274.573-1.274 1.274v8.917c0 .7.573 1.274 1.274 1.274h124.84c.701 0 1.275-.573 1.275-1.274v-8.917c0-.7-.574-1.274-1.274-1.274zM4.84 76.767l24.888-19.601c.717-.558.717-1.64 0-2.214L4.841 35.334c-.924-.732-2.293-.08-2.293 1.1v39.219c0 1.178 1.353 1.847 2.293 1.115z"/></svg>
